Newaita-dark/actions/16/document-close.svg

<svg height="16" viewBox="0 0 16 16" width="16" xmlns="http://www.w3.org/2000/svg"><path d="m12.71875 10.363281.46875.46875c.128906.128907.128906.339844 0 .46875l-3.273438 3.273438c-.128906.128906-.339843.128906-.46875 0l-.46875-.46875c-.128906-.128907-.128906-.335938 0-.464844l3.277344-3.277344c.128906-.128906.335938-.128906.464844 0zm0 0" fill="#f44336"/><path d="m13.1875 14.105469-.46875.46875c-.128906.128906-.335938.128906-.464844 0l-3.277344-3.273438c-.128906-.128906-.128906-.339843 0-.46875l.46875-.46875c.128907-.128906.339844-.128906.46875 0l3.273438 3.277344c.128906.128906.128906.335937 0 .464844zm0 0" fill="#f44336"/><path d="m3.96875 1.449219c-.734375 0-1.324219.589843-1.324219 1.320312v10.585938c0 .734375.589844 1.324219 1.324219 1.324219h3.640625v-1.324219h-2.980469c-.363281 0-.660156-.296875-.660156-.660157v-9.261718c0-.367188.296875-.664063.660156-.664063h5.019532l2.261718 2.257813v2.375h-.003906v1.652344h1.324219v-1.652344h-.003907v-2.648438c0-.171875-.070312-.339844-.191406-.464844l-2.648437-2.644531c-.121094-.125-.289063-.191406-.464844-.191406h-2.644531v-.003906zm0 0" fill="#e0e0e0"/></svg>

<?xml version="1.0" encoding="UTF-8"?>
<svg xmlns="http://www.w3.org/2000/svg" xmlns:xlink="http://www.w3.org/1999/xlink" width="16px" height="16px" viewBox="0 0 16 16" version="1.1">
<g id="surface1">
<path style=" stroke:none;fill-rule:nonzero;fill:rgb(95.686275%,26.274511%,21.176471%);fill-opacity:1;" d="M 12.71875 10.363281 L 13.1875 10.832031 C 13.316406 10.960938 13.316406 11.171875 13.1875 11.300781 L 9.914062 14.574219 C 9.785156 14.703125 9.574219 14.703125 9.445312 14.574219 L 8.976562 14.105469 C 8.847656 13.976562 8.847656 13.769531 8.976562 13.640625 L 12.253906 10.363281 C 12.382812 10.234375 12.589844 10.234375 12.71875 10.363281 Z M 12.71875 10.363281 "/>
<path style=" stroke:none;fill-rule:nonzero;fill:rgb(95.686275%,26.274511%,21.176471%);fill-opacity:1;" d="M 13.1875 14.105469 L 12.71875 14.574219 C 12.589844 14.703125 12.382812 14.703125 12.253906 14.574219 L 8.976562 11.300781 C 8.847656 11.171875 8.847656 10.960938 8.976562 10.832031 L 9.445312 10.363281 C 9.574219 10.234375 9.785156 10.234375 9.914062 10.363281 L 13.1875 13.640625 C 13.316406 13.769531 13.316406 13.976562 13.1875 14.105469 Z M 13.1875 14.105469 "/>
<path style=" stroke:none;fill-rule:nonzero;fill:rgb(87.843138%,87.843138%,87.843138%);fill-opacity:1;" d="M 3.96875 1.449219 C 3.234375 1.449219 2.644531 2.039062 2.644531 2.769531 L 2.644531 13.355469 C 2.644531 14.089844 3.234375 14.679688 3.96875 14.679688 L 7.609375 14.679688 L 7.609375 13.355469 L 4.628906 13.355469 C 4.265625 13.355469 3.96875 13.058594 3.96875 12.695312 L 3.96875 3.433594 C 3.96875 3.066406 4.265625 2.769531 4.628906 2.769531 L 9.648438 2.769531 L 11.910156 5.027344 L 11.910156 7.402344 L 11.90625 7.402344 L 11.90625 9.054688 L 13.230469 9.054688 L 13.230469 7.402344 L 13.226562 7.402344 L 13.226562 4.753906 C 13.226562 4.582031 13.15625 4.414062 13.035156 4.289062 L 10.386719 1.644531 C 10.265625 1.519531 10.097656 1.453125 9.921875 1.453125 L 7.277344 1.453125 L 7.277344 1.449219 Z M 3.96875 1.449219 "/>
</g>
</svg>
